; G-Code generated by Simplify3D(R) Version 3.1.0
; Jul 15, 2016 at 7:51:15 PM
; Settings Summary
;   processName,Vasemode
;   applyToModels,finger
;   profileName,Polar 3D Printer (modified)
;   profileVersion,2015-09-04 08:00:00
;   baseProfile,
;   printMaterial,PLA
;   printQuality,Medium
;   printExtruders,
;   extruderName,Primary Extruder
;   extruderToolheadNumber,0
;   extruderDiameter,1
;   extruderAutoWidth,0
;   extruderWidth,10
;   extrusionMultiplier,0.9
;   extruderUseRetract,1
;   extruderRetractionDistance,1
;   extruderExtraRestartDistance,0.1
;   extruderRetractionZLift,0.5
;   extruderRetractionSpeed,420
;   extruderUseCoasting,0
;   extruderCoastingDistance,0.2
;   extruderUseWipe,0
;   extruderWipeDistance,5
;   primaryExtruder,0
;   layerHeight,0.2
;   topSolidLayers,0
;   bottomSolidLayers,0
;   perimeterOutlines,1
;   printPerimetersInsideOut,1
;   startPointOption,1
;   startPointOriginX,0
;   startPointOriginY,0
;   startPointOriginZ,300
;   sequentialIslands,0
;   spiralVaseMode,1
;   firstLayerHeightPercentage,150
;   firstLayerWidthPercentage,100
;   firstLayerUnderspeed,0.75
;   useRaft,0
;   raftExtruder,0
;   raftLayers,1
;   raftOffset,0
;   raftSeparationDistance,0.25
;   raftInfill,85
;   disableRaftBaseLayers,0
;   useSkirt,0
;   skirtExtruder,0
;   skirtLayers,2
;   skirtOutlines,2
;   skirtOffset,4
;   usePrimePillar,0
;   primePillarExtruder,999
;   primePillarWidth,12
;   primePillarLocation,7
;   primePillarSpeedMultiplier,1
;   useOozeShield,0
;   oozeShieldExtruder,999
;   oozeShieldOffset,2
;   oozeShieldOutlines,1
;   oozeShieldSidewallShape,1
;   oozeShieldSidewallAngle,30
;   oozeShieldSpeedMultiplier,1
;   infillExtruder,0
;   internalInfillPattern,Rectilinear
;   externalInfillPattern,Rectilinear
;   infillPercentage,0
;   outlineOverlapPercentage,15
;   infillExtrusionWidthPercentage,100
;   minInfillLength,1
;   infillLayerInterval,1
;   infillAngles,45,-45
;   overlapInfillAngles,0
;   generateSupport,0
;   supportExtruder,0
;   supportInfillPercentage,30
;   supportExtraInflation,0
;   denseSupportLayers,0
;   denseSupportInfillPercentage,70
;   supportLayerInterval,1
;   supportHorizontalPartOffset,0.3
;   supportUpperSeparationLayers,1
;   supportLowerSeparationLayers,1
;   supportType,0
;   supportGridSpacing,4
;   maxOverhangAngle,45
;   supportAngles,0
;   temperatureName,Primary Extruder Temperature
;   temperatureNumber,0
;   temperatureSetpointCount,3
;   temperatureSetpointLayers,1,2,5
;   temperatureSetpointTemperatures,200,185,180
;   temperatureStabilizeAtStartup,0
;   temperatureHeatedBed,0
;   temperatureRelayBetweenLayers,0
;   temperatureRelayBetweenLoops,0
;   fanLayers,1
;   fanSpeeds,100
;   blipFanToFullPower,1
;   adjustSpeedForCooling,1
;   minSpeedLayerTime,15
;   minCoolingSpeedSlowdown,15
;   increaseFanForCooling,0
;   minFanLayerTime,45
;   maxCoolingFanSpeed,100
;   increaseFanForBridging,0
;   bridgingFanSpeed,100
;   use5D,1
;   relativeEdistances,0
;   allowEaxisZeroing,1
;   independentExtruderAxes,0
;   includeM10123,0
;   stickySupport,1
;   applyToolheadOffsets,0
;   gcodeXoffset,0
;   gcodeYoffset,0
;   gcodeZoffset,0
;   overrideMachineDefinition,1
;   machineTypeOverride,1
;   strokeXoverride,143.6
;   strokeYoverride,143.6
;   strokeZoverride,150
;   originOffsetXoverride,71.8
;   originOffsetYoverride,71.8
;   originOffsetZoverride,0
;   homeXdirOverride,0
;   homeYdirOverride,0
;   homeZdirOverride,-1
;   flipXoverride,1
;   flipYoverride,-1
;   flipZoverride,1
;   toolheadOffsets,0,0|0,0|0,0|0,0|0,0|0,0
;   overrideFirmwareConfiguration,1
;   firmwareTypeOverride,RepRap (Marlin/Repetier/Sprinter)
;   GPXconfigOverride,r2
;   baudRateOverride,115200
;   overridePrinterModels,1
;   printerModelsOverride
;   startingGcode,G92 Y0,G28 ; first home,G28 ; second home,G0 Z.3 X95 F2000 ; move extruder to edge of build plate,M107 ; fan off,G90 ; relative ,M82 ; mm units,M104 T0 S200 ; set extruder temp,G92 E-25 ; set inital position of extruder,M109 T0 S200 ; wait for temp,G0 E0 ; repopulate extruder,M106 S255 ; turn on fan,G0 Z.3 Y15 E5 F300 ; repopulate extruder and extrude test pile,G0 Y30 Z.3 E10 F300 ; move extruder back to build plate,G92 E0 ; reset extruder,M106 S255
;   layerChangeGcode,
;   retractionGcode,
;   toolChangeGcode,
;   endingGcode,G91 ; Relative positioning,T0,G1 E-25 F1500 ; remove filament from melt chamber,G1 Z10 F300,M104 T0 S0,G90 ; Absolute positioning,G92 Y0 Z0 E0 ; Reset position,G28 X ; home the x axis,G0 Y180 X98 F2000 ; move build plate to present part,M84 ; Turn steppers off,M107 ; Turn off fan,G92 Y0
;   exportFileFormat,gcode
;   celebration,0
;   celebrationSong,Random Song
;   postProcessing,
;   defaultSpeed,2000
;   outlineUnderspeed,0.75
;   solidInfillUnderspeed,0.8
;   supportUnderspeed,1
;   rapidXYspeed,2000
;   rapidZspeed,300
;   minBridgingArea,50
;   bridgingExtraInflation,0
;   bridgingExtrusionMultiplier,1
;   bridgingSpeedMultiplier,1.2
;   filamentDiameter,1.75
;   filamentPricePerKg,40
;   filamentDensity,1.25
;   useMinPrintHeight,0
;   minPrintHeight,0
;   useMaxPrintHeight,0
;   maxPrintHeight,0
;   useDiaphragm,0
;   diaphragmLayerInterval,20
;   robustSlicing,1
;   mergeAllIntoSolid,0
;   onlyRetractWhenCrossingOutline,1
;   retractBetweenLayers,1
;   useRetractionMinTravel,0
;   retractionMinTravel,3
;   retractWhileWiping,0
;   onlyWipeOutlines,1
;   avoidCrossingOutline,0
;   maxMovementDetourFactor,3
;   toolChangeRetractionDistance,12
;   toolChangeExtraRestartDistance,-0.5
;   toolChangeRetractionSpeed,600
;   allowThinWallGapFill,1
;   thinWallAllowedOverlapPercentage,10
;   horizontalSizeCompensation,0
G90
M82
M106 S255
M104 S200 T0
G92 Y0
G28 ; first home
G28 ; second home
G0 Z.3 X95 F2000 ; move extruder to edge of build plate
M107 ; fan off
G90 ; relative 
M82 ; mm units
M104 T0 S200 ; set extruder temp
G92 E-25 ; set inital position of extruder
M109 T0 S200 ; wait for temp
G0 E0 ; repopulate extruder
M106 S255 ; turn on fan
G0 Z.3 Y15 E5 F300 ; repopulate extruder and extrude test pile
G0 Y30 Z.3 E10 F300 ; move extruder back to build plate
G92 E0 ; reset extruder
M106 S255
G92 E0
G1 E-1.0000 F420
G1 Z0.500 F300
; layer 1, Z = 0.3
T0
; tool H0.300 W10.000
; outer perimeter
G1 X-5.719 Y5.562 F2000
G1 Z0.000 F300
G1 E0.1000 F126
G92 E0
G1 X-5.353 Y5.450 Z0.000 E0.2153 F471
G1 X-4.895 Y5.366 Z0.001 E0.4784
G1 X-4.526 Y5.274 Z0.002 E0.6940
G1 X-3.778 Y5.128 Z0.003 E1.1291
G1 X-3.442 Y5.079 Z0.005 E1.3233
G1 X-3.023 Y5.059 Z0.006 E1.5647
G1 X-2.255 Y4.983 Z0.007 E2.0105
G1 X-2.121 Y4.990 Z0.009 E2.0881
G1 X-0.984 Y4.987 Z0.009 E2.7525
G1 X-0.285 Y5.038 Z0.012 E3.1642
G1 X0.487 Y5.141 Z0.014 E3.6244
G1 X0.622 Y5.152 Z0.016 E3.7049
G1 X1.292 Y5.301 Z0.016 E4.1130
G1 X1.964 Y5.417 Z0.018 E4.5208
G1 X2.088 Y5.448 Z0.020 E4.5977
G1 X2.607 Y5.637 Z0.020 E4.9297
G1 X3.226 Y5.820 Z0.022 E5.3204
G1 X3.686 Y5.999 Z0.023 E5.6197
G1 X4.977 Y6.552 Z0.024 E6.4815
G1 X5.806 Y6.958 Z0.028 E7.0523
G1 X6.800 Y7.515 Z0.030 E7.7623
G1 X7.569 Y8.018 Z0.033 E8.3398
G1 X7.815 Y8.209 Z0.036 E8.5356
G1 X8.405 Y8.615 Z0.036 E8.9886
G1 X8.659 Y8.802 Z0.038 E9.1887
G1 X9.500 Y9.552 Z0.039 E9.9095
G1 X9.800 Y9.799 Z0.042 E10.1585
G1 X9.859 Y9.852 Z0.043 E10.2099
G1 X10.244 Y10.248 Z0.043 E10.5656
G1 X10.607 Y10.667 Z0.044 E10.9246
G1 X10.763 Y10.833 Z0.046 E11.0722
G1 X10.896 Y11.022 Z0.046 E11.2223
G1 X11.344 Y11.567 Z0.047 E11.6822
G1 X11.555 Y11.866 Z0.049 E11.9219
G1 X11.715 Y12.127 Z0.050 E12.1230
G1 X11.945 Y12.440 Z0.051 E12.3783
G1 X11.957 Y12.463 Z0.052 E12.3955
G1 X12.458 Y13.297 Z0.052 E13.0398
G1 X13.331 Y14.904 Z0.054 E14.2672
G1 X13.599 Y15.457 Z0.059 E14.6815
G1 X13.833 Y15.996 Z0.060 E15.0790
G1 X14.054 Y16.367 Z0.062 E15.3726
G1 X14.142 Y16.602 Z0.063 E15.5433
G1 X14.619 Y17.555 Z0.064 E16.2734
G1 X14.655 Y17.639 Z0.066 E16.3359
G1 X14.825 Y18.134 Z0.066 E16.6964
G1 X15.118 Y18.754 Z0.068 E17.1705
G1 X15.232 Y19.121 Z0.070 E17.4372
G1 X15.334 Y19.311 Z0.071 E17.5868
G1 X15.366 Y19.400 Z0.071 E17.6525
G1 X15.656 Y20.386 Z0.071 E18.3714
G1 X15.823 Y21.278 Z0.074 E19.0104
G1 X15.844 Y21.453 Z0.076 E19.1348
G1 X15.868 Y21.730 Z0.077 E19.3312
G1 X15.904 Y22.686 Z0.077 E20.0108
G1 X15.961 Y23.069 Z0.080 E20.2865
G1 X15.970 Y23.792 Z0.081 E20.8044
G1 X15.962 Y25.001 Z0.083 E21.6767
G1 X15.947 Y25.600 Z0.086 E22.1112
G1 X15.901 Y26.218 Z0.087 E22.5618
G1 X15.921 Y26.866 Z0.089 E23.0357
G1 X15.897 Y27.389 Z0.091 E23.4192
G1 X15.905 Y27.932 Z0.092 E23.8186
G1 X15.875 Y28.290 Z0.093 E24.0835
G1 X15.836 Y30.161 Z0.094 E25.4809
G1 X15.784 Y30.670 Z0.099 E25.8634
G1 X15.715 Y31.733 Z0.100 E26.6670
G1 X15.549 Y33.158 Z0.103 E27.7577
G1 X15.285 Y34.778 Z0.107 E29.0195
G1 X15.092 Y35.600 Z0.111 E29.6714
G1 X14.998 Y35.945 Z0.113 E29.9488
G1 X14.784 Y36.620 Z0.114 E30.4992
G1 X14.679 Y36.873 Z0.116 E30.7120
G1 X14.448 Y37.381 Z0.116 E31.1485
G1 X14.211 Y37.818 Z0.118 E31.5383
G1 X13.836 Y38.472 Z0.119 E32.1319
G1 X13.432 Y39.049 Z0.121 E32.6890
G1 X13.395 Y39.094 Z0.123 E32.7352
G1 X12.904 Y39.251 Z0.123 E33.1442
G1 X11.694 Y39.899 Z0.124 E34.2425
G1 X10.720 Y40.681 Z0.128 E35.2500
G1 X10.069 Y41.555 Z0.131 E36.1332
G1 X9.830 Y41.737 Z0.134 E36.3780
G1 X9.733 Y41.843 Z0.134 E36.4946
G1 X9.220 Y41.986 Z0.135 E36.9291
G1 X9.104 Y42.048 Z0.136 E37.0367
G1 X8.557 Y42.216 Z0.136 E37.5056
G1 X7.100 Y43.278 Z0.138 E38.9978
G1 X6.114 Y44.531 Z0.142 E40.3302
G1 X5.968 Y44.878 Z0.147 E40.6454
G1 X5.032 Y44.872 Z0.148 E41.4334
G1 X4.258 Y44.914 Z0.150 E42.0886
G1 X4.131 Y44.929 Z0.152 E42.1965
G1 X3.789 Y44.904 Z0.152 E42.4874
G1 X3.090 Y44.585 Z0.153 E43.1416
G1 X1.611 Y44.169 Z0.155 E44.4603
G1 X0.398 Y44.306 Z0.159 E45.5156
G1 X-0.482 Y43.802 Z0.162 E46.3976
G1 X-1.040 Y43.781 Z0.165 E46.8844
G1 X-2.134 Y43.157 Z0.166 E47.9902
G1 X-4.193 Y43.155 Z0.169 E49.8175
G1 X-4.783 Y43.291 Z0.174 E50.3573
G1 X-4.972 Y43.265 Z0.176 E50.5276
G1 X-5.637 Y43.267 Z0.177 E51.1221
G1 X-5.958 Y43.097 Z0.178 E51.4475
G1 X-6.855 Y42.713 Z0.179 E52.3271
G1 X-7.623 Y42.492 Z0.182 E53.0507
G1 X-8.418 Y42.346 Z0.184 E53.7845
G1 X-8.512 Y42.339 Z0.186 E53.8709
G1 X-8.695 Y42.206 Z0.186 E54.0768
G1 X-9.384 Y41.662 Z0.187 E54.8791
G1 X-9.640 Y41.430 Z0.189 E55.1958
G1 X-9.957 Y41.111 Z0.190 E55.6086
G1 X-11.432 Y39.715 Z0.191 E57.4932
G1 X-12.024 Y39.061 Z0.196 E58.3148
G1 X-12.275 Y38.742 Z0.198 E58.6946
G1 X-12.380 Y38.483 Z0.199 E58.9561
G1 X-12.726 Y37.876 Z0.200 E59.6116
G1 X-13.393 Y36.859 Z0.202 E60.7602
G1 X-13.867 Y36.284 Z0.205 E61.4673
G1 X-14.112 Y36.026 Z0.207 E61.8045
G1 X-14.301 Y35.766 Z0.208 E62.1106
G1 X-14.593 Y34.915 Z0.208 E62.9700
G1 X-15.040 Y34.091 Z0.211 E63.8698
G1 X-15.310 Y33.675 Z0.213 E64.3475
G1 X-15.591 Y33.181 Z0.214 E64.8958
G1 X-16.015 Y32.555 Z0.216 E65.6284
G1 X-16.185 Y31.991 Z0.218 E66.2009
G1 X-16.420 Y31.005 Z0.219 E67.1904
G1 X-16.508 Y30.560 Z0.222 E67.6337
G1 X-16.570 Y30.172 Z0.223 E68.0193
G1 X-16.833 Y28.309 Z0.224 E69.8805
G1 X-17.054 Y25.972 Z0.229 E72.2291
G1 X-17.137 Y24.954 Z0.235 E73.2562
G1 X-17.207 Y23.597 Z0.237 E74.6307
G1 X-17.226 Y22.447 Z0.241 E75.8010
G1 X-17.153 Y20.881 Z0.244 E77.4079
G1 X-17.083 Y20.289 Z0.248 E78.0202
G1 X-17.010 Y19.856 Z0.249 E78.4726
G1 X-16.860 Y18.686 Z0.250 E79.6930
G1 X-16.806 Y18.366 Z0.253 E80.0305
G1 X-16.717 Y17.946 Z0.254 E80.4759
G1 X-16.562 Y17.415 Z0.255 E81.0526
G1 X-16.406 Y16.666 Z0.257 E81.8523
G1 X-16.334 Y16.396 Z0.259 E82.1448
G1 X-16.033 Y15.500 Z0.259 E83.1373
G1 X-15.880 Y15.140 Z0.262 E83.5492
G1 X-15.747 Y14.773 Z0.263 E83.9611
G1 X-15.409 Y14.049 Z0.264 E84.8068
G1 X-15.084 Y13.444 Z0.266 E85.5359
G1 X-14.967 Y13.170 Z0.268 E85.8537
G1 X-14.452 Y12.247 Z0.268 E86.9824
G1 X-14.438 Y12.213 Z0.271 E87.0216
G1 X-14.029 Y11.552 Z0.271 E87.8547
G1 X-13.797 Y11.118 Z0.273 E88.3838
G1 X-13.287 Y10.427 Z0.274 E89.3106
G1 X-13.127 Y10.139 Z0.277 E89.6656
G1 X-13.005 Y9.987 Z0.277 E89.8763
G1 X-12.818 Y9.719 Z0.278 E90.2301
G1 X-12.285 Y9.090 Z0.279 E91.1260
G1 X-12.121 Y8.918 Z0.281 E91.3842
G1 X-11.948 Y8.774 Z0.281 E91.6298
G1 X-11.462 Y8.319 Z0.282 E92.3564
G1 X-11.313 Y8.197 Z0.284 E92.5678
G1 X-11.030 Y7.991 Z0.284 E92.9502
G1 X-10.679 Y7.769 Z0.285 E93.4061
G1 X-10.243 Y7.443 Z0.286 E94.0037
G1 X-10.010 Y7.319 Z0.287 E94.2949
G1 X-9.310 Y6.912 Z0.288 E95.1880
G1 X-8.839 Y6.674 Z0.290 E95.7721
G1 X-8.104 Y6.349 Z0.292 E96.6651
G1 X-6.650 Y5.817 Z0.294 E98.3958
G1 X-5.719 Y5.562 Z0.298 E99.4800
; layer 2, Z = 0.5
M104 S185 T0
; tool H0.200 W10.000
; outer perimeter
G92 E0
G1 X-5.157 Y5.265 Z0.300 E0.4757 F472
G1 X-4.475 Y5.103 Z0.301 E1.0002
G1 X-3.383 Y4.930 Z0.302 E1.8271
G1 X-3.011 Y4.915 Z0.304 E2.1058
G1 X-2.652 Y4.854 Z0.304 E2.3787
G1 X-2.473 Y4.837 Z0.305 E2.5133
G1 X-2.009 Y4.850 Z0.305 E2.8604
G1 X-1.474 Y4.827 Z0.306 E3.2611
G1 X-1.116 Y4.836 Z0.307 E3.5289
G1 X-0.203 Y4.897 Z0.307 E4.2140
G1 X0.150 Y4.936 Z0.309 E4.4793
G1 X1.741 Y5.226 Z0.310 E5.6902
G1 X2.127 Y5.321 Z0.312 E5.9876
G1 X2.397 Y5.415 Z0.313 E6.2016
G1 X3.053 Y5.601 Z0.314 E6.7118
G1 X3.171 Y5.640 Z0.315 E6.8048
G1 X3.352 Y5.722 Z0.315 E6.9536
G1 X4.542 Y6.196 Z0.315 E7.9117
G1 X4.900 Y6.353 Z0.317 E8.2044
G1 X5.259 Y6.521 Z0.318 E8.5013
G1 X5.488 Y6.643 Z0.319 E8.6952
G1 X6.962 Y7.465 Z0.319 E9.9584
G1 X7.575 Y7.883 Z0.322 E10.5138
G1 X7.901 Y8.131 Z0.323 E10.8198
G1 X8.532 Y8.533 Z0.324 E11.3803
G1 X8.743 Y8.690 Z0.325 E11.5765
G1 X8.991 Y8.920 Z0.326 E11.8301
G1 X9.381 Y9.240 Z0.326 E12.2076
G1 X10.269 Y10.095 Z0.327 E13.1299
G1 X10.920 Y10.826 Z0.329 E13.8622
G1 X11.126 Y11.115 Z0.331 E14.1280
G1 X11.478 Y11.533 Z0.331 E14.5373
G1 X11.918 Y12.229 Z0.332 E15.1534
G1 X11.981 Y12.313 Z0.334 E15.2319
G1 X12.125 Y12.608 Z0.334 E15.4780
G1 X12.434 Y13.038 Z0.335 E15.8741
G1 X13.473 Y15.055 Z0.335 E17.5720
G1 X13.559 Y15.180 Z0.339 E17.6853
G1 X13.666 Y15.400 Z0.340 E17.8683
G1 X13.843 Y15.830 Z0.340 E18.2164
G1 X14.153 Y16.379 Z0.341 E18.6879
G1 X14.272 Y16.684 Z0.342 E18.9332
G1 X14.466 Y17.041 Z0.342 E19.2371
G1 X14.650 Y17.463 Z0.343 E19.5817
G1 X14.759 Y17.642 Z0.344 E19.7385
G1 X14.881 Y18.022 Z0.344 E20.0365
G1 X15.077 Y18.449 Z0.345 E20.3882
G1 X15.202 Y18.901 Z0.346 E20.7389
G1 X15.389 Y19.292 Z0.346 E21.0630
G1 X15.516 Y19.639 Z0.347 E21.3399
G1 X15.626 Y19.991 Z0.348 E21.6156
G1 X15.705 Y20.444 Z0.348 E21.9601
G1 X15.814 Y20.885 Z0.349 E22.2997
G1 X15.958 Y21.963 Z0.350 E23.1137
G1 X15.995 Y22.716 Z0.352 E23.6779
G1 X15.988 Y23.309 Z0.353 E24.1221
G1 X16.016 Y23.851 Z0.354 E24.5281
G1 X15.975 Y24.472 Z0.355 E24.9937
G1 X15.993 Y24.953 Z0.356 E25.3537
G1 X15.898 Y27.646 Z0.357 E27.3707
G1 X15.915 Y28.104 Z0.361 E27.7135
G1 X15.891 Y28.509 Z0.362 E28.0172
G1 X15.889 Y29.094 Z0.363 E28.4545
G1 X15.843 Y29.737 Z0.364 E28.9372
G1 X15.826 Y30.347 Z0.365 E29.3942
G1 X15.747 Y31.078 Z0.366 E29.9438
G1 X15.695 Y31.896 Z0.367 E30.5574
G1 X15.560 Y32.953 Z0.369 E31.3550
G1 X15.272 Y34.630 Z0.370 E32.6283
G1 X14.952 Y35.854 Z0.373 E33.5750
G1 X14.694 Y36.664 Z0.376 E34.2115
G1 X14.661 Y36.746 Z0.377 E34.2769
G1 X14.265 Y37.582 Z0.377 E34.9698
G1 X13.950 Y38.145 Z0.379 E35.4522
G1 X13.714 Y38.506 Z0.380 E35.7753
G1 X13.616 Y38.699 Z0.380 E35.9370
G1 X13.406 Y38.991 Z0.381 E36.2060
G1 X13.152 Y39.040 Z0.381 E36.4000
G1 X11.849 Y39.709 Z0.382 E37.4955
G1 X10.702 Y40.545 Z0.384 E38.5576
G1 X10.460 Y40.866 Z0.387 E38.8588
G1 X10.338 Y40.968 Z0.387 E38.9774
G1 X10.140 Y41.248 Z0.388 E39.2348
G1 X10.115 Y41.269 Z0.388 E39.2586
G1 X9.394 Y41.937 Z0.388 E39.9939
G1 X9.067 Y42.344 Z0.390 E40.3851
G1 X8.663 Y42.468 Z0.391 E40.7017
G1 X7.400 Y43.468 Z0.392 E41.9071
G1 X6.400 Y44.587 Z0.394 E43.0303
G1 X6.263 Y44.918 Z0.397 E43.2983
G1 X6.167 Y44.938 Z0.398 E43.3717
G1 X6.132 Y44.943 Z0.398 E43.3986
G1 X4.537 Y44.907 Z0.398 E44.5922
G1 X4.279 Y44.929 Z0.400 E44.7857
G1 X3.995 Y44.884 Z0.401 E45.0014
G1 X3.840 Y44.836 Z0.401 E45.1226
G1 X3.774 Y44.836 Z0.402 E45.1723
G1 X3.384 Y44.566 Z0.402 E45.5267
G1 X1.192 Y43.938 Z0.403 E47.2338
G1 X1.058 Y43.974 Z0.406 E47.3375
G1 X0.797 Y43.908 Z0.407 E47.5386
G1 X0.230 Y44.112 Z0.407 E47.9896
G1 X-1.158 Y43.773 Z0.408 E49.0588
G1 X-1.913 Y43.345 Z0.411 E49.7083
G1 X-3.540 Y43.073 Z0.412 E50.9425
