; G-Code generated by Simplify3D(R) Version 3.0.1
; Jan 19, 2016 at 9:16:27 PM
; Settings Summary
;   processName,Process1
;   applyToModels,matlab
;   profileName,Polar3D_100_Micron
;   profileVersion,2016-01-19 21:07:21
;   baseProfile,
;   printMaterial,PLA
;   printQuality,Medium
;   printExtruders,
;   extruderName,Extruder 1
;   extruderToolheadNumber,0
;   extruderDiameter,0.4
;   extruderAutoWidth,1
;   extruderWidth,0.48
;   extrusionMultiplier,0.9
;   extruderUseRetract,1
;   extruderRetractionDistance,1
;   extruderExtraRestartDistance,0.1
;   extruderRetractionZLift,0.5
;   extruderRetractionSpeed,420
;   extruderUseCoasting,0
;   extruderCoastingDistance,0.2
;   extruderUseWipe,0
;   extruderWipeDistance,5
;   primaryExtruder,0
;   layerHeight,0.1
;   topSolidLayers,8
;   bottomSolidLayers,7
;   perimeterOutlines,2
;   printPerimetersInsideOut,1
;   startPointOption,1
;   startPointOriginX,0
;   startPointOriginY,0
;   startPointOriginZ,300
;   sequentialIslands,0
;   spiralVaseMode,0
;   firstLayerHeightPercentage,150
;   firstLayerWidthPercentage,100
;   firstLayerUnderspeed,0.75
;   useRaft,0
;   raftExtruder,0
;   raftLayers,1
;   raftOffset,0
;   raftSeparationDistance,0.25
;   raftInfill,85
;   disableRaftBaseLayers,0
;   useSkirt,0
;   skirtExtruder,0
;   skirtLayers,1
;   skirtOutlines,2
;   skirtOffset,4
;   usePrimePillar,0
;   primePillarExtruder,999
;   primePillarWidth,12
;   primePillarLocation,7
;   primePillarSpeedMultiplier,1
;   useOozeShield,0
;   oozeShieldExtruder,999
;   oozeShieldOffset,2
;   oozeShieldOutlines,1
;   oozeShieldSidewallShape,1
;   oozeShieldSidewallAngle,30
;   oozeShieldSpeedMultiplier,1
;   infillExtruder,0
;   internalInfillPattern,Rectilinear
;   externalInfillPattern,Rectilinear
;   infillPercentage,10
;   outlineOverlapPercentage,15
;   infillExtrusionWidthPercentage,100
;   minInfillLength,1
;   infillLayerInterval,1
;   infillAngles,45,-45
;   overlapInfillAngles,0
;   generateSupport,0
;   supportExtruder,0
;   supportInfillPercentage,30
;   supportExtraInflation,0
;   denseSupportLayers,0
;   denseSupportInfillPercentage,70
;   supportLayerInterval,1
;   supportHorizontalPartOffset,0.3
;   supportUpperSeparationLayers,1
;   supportLowerSeparationLayers,1
;   supportType,0
;   supportGridSpacing,4
;   maxOverhangAngle,45
;   supportAngles,0
;   temperatureName,Extruder 1 Temperature
;   temperatureNumber,0
;   temperatureSetpointCount,2
;   temperatureSetpointLayers,1,2
;   temperatureSetpointTemperatures,200,185
;   temperatureStabilizeAtStartup,1
;   temperatureHeatedBed,0
;   temperatureRelayBetweenLayers,0
;   temperatureRelayBetweenLoops,0
;   fanLayers,1
;   fanSpeeds,100
;   blipFanToFullPower,1
;   adjustSpeedForCooling,1
;   minSpeedLayerTime,15
;   minCoolingSpeedSlowdown,15
;   increaseFanForCooling,0
;   minFanLayerTime,45
;   maxCoolingFanSpeed,100
;   increaseFanForBridging,0
;   bridgingFanSpeed,100
;   use5D,1
;   relativeEdistances,0
;   allowEaxisZeroing,1
;   independentExtruderAxes,0
;   includeM10123,0
;   stickySupport,1
;   applyToolheadOffsets,0
;   gcodeXoffset,0
;   gcodeYoffset,0
;   gcodeZoffset,0
;   overrideMachineDefinition,1
;   machineTypeOverride,1
;   strokeXoverride,143.6
;   strokeYoverride,143.6
;   strokeZoverride,150
;   originOffsetXoverride,71.8
;   originOffsetYoverride,71.8
;   originOffsetZoverride,0
;   homeXdirOverride,0
;   homeYdirOverride,0
;   homeZdirOverride,1
;   flipXoverride,1
;   flipYoverride,-1
;   flipZoverride,1
;   toolheadOffsets,0,0|0,0|0,0|0,0|0,0|0,0
;   overrideFirmwareConfiguration,1
;   firmwareTypeOverride,RepRap (Marlin/Repetier/Sprinter)
;   GPXconfigOverride,r2
;   baudRateOverride,115200
;   overridePrinterModels,0
;   printerModelsOverride
;   startingGcode,G92 Y0,G28 ; first home,G28 ; second home,G0 Z.3 X95 F2000 ; move extruder to edge of build plate,M107 ; fan off,G90 ; relative ,M82 ; mm units,M104 T0 S200 ; set extruder temp,G92 E-25 ; set inital position of extruder,M109 T0 S200 ; wait for temp,G0 E0 ; repopulate extruder,M106 S255 ; turn on fan,G0 Z.3 Y15 E5 F300 ; repopulate extruder and extrude test pile,G0 Y30 Z.3 E10 F300; move extruder back to build plate,G92 E0 ; reset extruder,M106 S255
;   layerChangeGcode,
;   retractionGcode,
;   toolChangeGcode,
;   endingGcode,G91 ; Relative positioning,T0,G1 E-25 F1500; remove filament from melt chamber,G1 Z10 F300;,M104 T0 S0,G90 ; Absolute positioning,G92 Y0 Z0 E0; Reset position,G28 X ; home the x axis,G0 Y180 X98 F2000 ; move build plate to present part,M84 ; Turn steppers off,M107 ; Turn off fan,G92 Y0
;   createX3G,0
;   celebration,0
;   celebrationSong,Random Song
;   createMB5G,0
;   postProcessing,
;   defaultSpeed,2000
;   outlineUnderspeed,0.75
;   solidInfillUnderspeed,0.8
;   supportUnderspeed,1
;   rapidXYspeed,2000
;   rapidZspeed,300
;   minBridgingArea,50
;   bridgingExtraInflation,0
;   bridgingExtrusionMultiplier,1
;   bridgingSpeedMultiplier,1.2
;   filamentDiameter,1.75
;   filamentPricePerKg,40
;   filamentDensity,1.25
;   useMinPrintHeight,0
;   minPrintHeight,0
;   useMaxPrintHeight,0
;   maxPrintHeight,0
;   useDiaphragm,0
;   diaphragmLayerInterval,20
;   robustSlicing,1
;   mergeAllIntoSolid,0
;   onlyRetractWhenCrossingOutline,1
;   retractBetweenLayers,1
;   useRetractionMinTravel,0
;   retractionMinTravel,3
;   retractWhileWiping,0
;   onlyWipeOutlines,1
;   avoidCrossingOutline,0
;   maxMovementDetourFactor,3
;   toolChangeRetractionDistance,12
;   toolChangeExtraRestartDistance,-0.5
;   toolChangeRetractionSpeed,600
;   allowThinWallGapFill,1
;   thinWallAllowedOverlapPercentage,10
;   horizontalSizeCompensation,0
G90
M82
M106 S255
M104 S200 T0
M109 S200 T0
G92 Y0
G28 ; first home
G28 ; second home
G0 Z.3 X95 F2000 ; move extruder to edge of build plate
M107 ; fan off
G90 ; relative 
M82 ; mm units
M104 T0 S200 ; set extruder temp
G92 E-25 ; set inital position of extruder
M109 T0 S200 ; wait for temp
G0 E0 ; repopulate extruder
M106 S255 ; turn on fan
G0 Z.3 Y15 E5 F300 ; repopulate extruder and extrude test pile
G0 Y30 Z.3 E10 F300; move extruder back to build plate
G92 E0 ; reset extruder
M106 S255
G92 E0
G1 E-1.0000 F420
G1 Z0.650 F300
; layer 1, Z = 0.15
T0
; tool H0.150 W0.480
; inner perimeter
G1 X0.971 Y-2.922 F2000
G1 Z0.150 F300
G1 E0.1000 F126
G92 E0
G1 X1.202 Y-2.835 E0.0067 F301
G1 X1.429 Y-2.728 E0.0134
G1 X1.646 Y-2.603 E0.0202
G1 X1.849 Y-2.462 E0.0268
G1 X2.041 Y-2.306 E0.0335
G1 X2.220 Y-2.134 E0.0402
G1 X2.385 Y-1.948 E0.0469
G1 X2.534 Y-1.750 E0.0535
G1 X2.666 Y-1.541 E0.0602
G1 X2.781 Y-1.322 E0.0669
G1 X2.878 Y-1.094 E0.0736
G1 X2.957 Y-0.859 E0.0802
G1 X3.017 Y-0.618 E0.0869
G1 X3.057 Y-0.374 E0.0936
G1 X3.077 Y-0.127 E0.1003
G1 X3.077 Y0.124 E0.1070
G1 X3.057 Y0.371 E0.1137
G1 X3.017 Y0.615 E0.1204
G1 X2.958 Y0.855 E0.1270
G1 X2.880 Y1.091 E0.1337
G1 X2.783 Y1.319 E0.1404
G1 X2.668 Y1.538 E0.1471
G1 X2.535 Y1.748 E0.1537
G1 X2.387 Y1.946 E0.1604
G1 X2.223 Y2.131 E0.1671
G1 X2.043 Y2.304 E0.1738
G1 X1.852 Y2.460 E0.1804
G1 X1.648 Y2.601 E0.1871
G1 X1.431 Y2.727 E0.1939
G1 X1.207 Y2.833 E0.2005
G1 X0.978 Y2.920 E0.2072
G1 X0.743 Y2.988 E0.2138
G1 X0.499 Y3.039 E0.2205
G1 X0.255 Y3.069 E0.2271
G1 X0.008 Y3.079 E0.2338
G1 X-0.240 Y3.070 E0.2404
G1 X-0.487 Y3.041 E0.2471
G1 X-0.729 Y2.992 E0.2538
G1 X-0.971 Y2.922 E0.2606
G1 X-1.204 Y2.834 E0.2673
G1 X-1.429 Y2.728 E0.2740
G1 X-1.646 Y2.603 E0.2807
G1 X-1.849 Y2.462 E0.2874
G1 X-2.041 Y2.306 E0.2941
G1 X-2.220 Y2.134 E0.3007
G1 X-2.385 Y1.948 E0.3074
G1 X-2.534 Y1.750 E0.3141
G1 X-2.666 Y1.541 E0.3208
G1 X-2.781 Y1.322 E0.3274
G1 X-2.878 Y1.094 E0.3341
G1 X-2.957 Y0.859 E0.3408
G1 X-3.017 Y0.618 E0.3475
G1 X-3.057 Y0.374 E0.3541
G1 X-3.077 Y0.127 E0.3608
G1 X-3.077 Y-0.127 E0.3677
G1 X-3.057 Y-0.371 E0.3742
G1 X-3.017 Y-0.615 E0.3809
G1 X-2.958 Y-0.855 E0.3876
G1 X-2.880 Y-1.091 E0.3943
G1 X-2.783 Y-1.319 E0.4010
G1 X-2.668 Y-1.538 E0.4076
G1 X-2.535 Y-1.748 E0.4143
G1 X-2.387 Y-1.946 E0.4210
G1 X-2.223 Y-2.131 E0.4276
G1 X-2.043 Y-2.304 E0.4343
G1 X-1.852 Y-2.460 E0.4410
G1 X-1.648 Y-2.601 E0.4477
G1 X-1.431 Y-2.727 E0.4544
G1 X-1.208 Y-2.833 E0.4611
G1 X-0.976 Y-2.921 E0.4678
G1 X-0.741 Y-2.989 E0.4744
G1 X-0.500 Y-3.038 E0.4810
G1 X-0.253 Y-3.069 E0.4877
G1 X-0.004 Y-3.079 E0.4944
G1 X0.241 Y-3.070 E0.5010
G1 X0.490 Y-3.040 E0.5078
G1 X0.734 Y-2.991 E0.5145
G1 X0.971 Y-2.922 E0.5211
; outer perimeter
G1 X1.122 Y-3.378 F2000
G92 E0
G1 X1.390 Y-3.277 E0.0077 F258
G1 X1.651 Y-3.153 E0.0155
G1 X1.903 Y-3.009 E0.0233
G1 X2.138 Y-2.846 E0.0310
G1 X2.360 Y-2.665 E0.0387
G1 X2.566 Y-2.467 E0.0464
G1 X2.757 Y-2.252 E0.0542
G1 X2.929 Y-2.023 E0.0619
G1 X3.082 Y-1.781 E0.0696
G1 X3.215 Y-1.528 E0.0773
G1 X3.327 Y-1.265 E0.0850
G1 X3.418 Y-0.993 E0.0927
G1 X3.487 Y-0.714 E0.1005
G1 X3.533 Y-0.432 E0.1082
G1 X3.557 Y-0.147 E0.1159
G1 X3.557 Y0.143 E0.1237
G1 X3.534 Y0.428 E0.1314
G1 X3.488 Y0.711 E0.1391
G1 X3.420 Y0.989 E0.1468
G1 X3.329 Y1.262 E0.1546
G1 X3.217 Y1.525 E0.1623
G1 X3.084 Y1.778 E0.1700
G1 X2.931 Y2.020 E0.1777
G1 X2.759 Y2.249 E0.1854
G1 X2.569 Y2.464 E0.1931
G1 X2.362 Y2.663 E0.2009
G1 X2.141 Y2.844 E0.2086
G1 X1.905 Y3.007 E0.2163
G1 X1.654 Y3.152 E0.2241
G1 X1.396 Y3.275 E0.2318
G1 X1.130 Y3.376 E0.2395
G1 X0.858 Y3.455 E0.2471
G1 X0.577 Y3.513 E0.2549
G1 X0.294 Y3.547 E0.2625
G1 X0.009 Y3.560 E0.2702
G1 X-0.278 Y3.549 E0.2779
G1 X-0.563 Y3.515 E0.2857
G1 X-0.843 Y3.458 E0.2934
G1 X-1.122 Y3.378 E0.3012
G1 X-1.392 Y3.276 E0.3090
G1 X-1.651 Y3.153 E0.3167
G1 X-1.903 Y3.009 E0.3245
G1 X-2.138 Y2.846 E0.3322
G1 X-2.360 Y2.665 E0.3399
G1 X-2.566 Y2.467 E0.3476
G1 X-2.757 Y2.252 E0.3554
G1 X-2.929 Y2.023 E0.3631
G1 X-3.082 Y1.781 E0.3708
G1 X-3.215 Y1.528 E0.3785
G1 X-3.327 Y1.265 E0.3862
G1 X-3.418 Y0.993 E0.3939
G1 X-3.487 Y0.714 E0.4017
G1 X-3.533 Y0.432 E0.4094
G1 X-3.557 Y0.147 E0.4171
G1 X-3.557 Y-0.147 E0.4250
G1 X-3.534 Y-0.428 E0.4326
G1 X-3.488 Y-0.711 E0.4403
G1 X-3.420 Y-0.989 E0.4480
G1 X-3.329 Y-1.262 E0.4558
G1 X-3.217 Y-1.525 E0.4635
G1 X-3.084 Y-1.778 E0.4712
G1 X-2.931 Y-2.020 E0.4789
G1 X-2.759 Y-2.249 E0.4866
G1 X-2.569 Y-2.464 E0.4943
G1 X-2.362 Y-2.663 E0.5021
G1 X-2.141 Y-2.844 E0.5098
G1 X-1.905 Y-3.007 E0.5175
G1 X-1.654 Y-3.152 E0.5253
G1 X-1.396 Y-3.275 E0.5330
G1 X-1.128 Y-3.376 E0.5407
G1 X-0.856 Y-3.455 E0.5484
G1 X-0.578 Y-3.512 E0.5560
G1 X-0.293 Y-3.548 E0.5638
G1 X-0.005 Y-3.560 E0.5715
G1 X0.279 Y-3.549 E0.5792
G1 X0.566 Y-3.514 E0.5870
G1 X0.848 Y-3.457 E0.5947
G1 X1.122 Y-3.378 E0.6024
; inner perimeter
G1 X0.676 Y-2.352 F2000
G92 E0
G1 X0.230 Y-2.435 E0.0122 F301
G1 X-0.162 Y-2.441 E0.0228
G1 X-0.459 Y-2.402 E0.0309
G1 X-0.754 Y-2.328 E0.0390
G1 X-1.165 Y-2.151 E0.0511
G1 X-1.422 Y-1.990 E0.0593
G1 X-1.655 Y-1.801 E0.0673
G1 X-1.922 Y-1.514 E0.0779
G1 X-2.169 Y-1.132 E0.0902
G1 X-2.293 Y-0.853 E0.0984
G1 X-2.378 Y-0.576 E0.1062
G1 X-2.429 Y-0.290 E0.1140
G1 X-2.446 Y0.000 E0.1218
G1 X-2.429 Y0.290 E0.1297
G1 X-2.375 Y0.591 E0.1379
G1 X-2.223 Y1.019 E0.1501
G1 X-2.026 Y1.373 E0.1611
G1 X-1.729 Y1.731 E0.1736
G1 X-1.420 Y1.994 E0.1845
G1 X-1.024 Y2.222 E0.1968
G1 X-0.741 Y2.331 E0.2050
G1 X-0.459 Y2.402 E0.2128
G1 X-0.172 Y2.440 E0.2207
G1 X0.119 Y2.443 E0.2285
G1 X0.407 Y2.412 E0.2363
G1 X0.690 Y2.347 E0.2441
G1 X0.964 Y2.249 E0.2519
G1 X1.223 Y2.119 E0.2598
G1 X1.465 Y1.959 E0.2676
G1 X1.699 Y1.761 E0.2758
G1 X1.994 Y1.416 E0.2880
G1 X2.195 Y1.081 E0.2986
G1 X2.310 Y0.803 E0.3067
G1 X2.393 Y0.511 E0.3149
G1 X2.445 Y0.066 E0.3269
G1 X2.434 Y-0.237 E0.3351
G1 X2.388 Y-0.533 E0.3432
G1 X2.272 Y-0.907 E0.3537
G1 X2.065 Y-1.312 E0.3660
G1 X1.885 Y-1.559 E0.3742
G1 X1.687 Y-1.771 E0.3820
G1 X1.465 Y-1.959 E0.3899
G1 X1.223 Y-2.119 E0.3977
G1 X0.964 Y-2.249 E0.4055
G1 X0.676 Y-2.352 E0.4137
; outer perimeter
G1 X0.550 Y-1.887 F2000
G92 E0
G1 X0.181 Y-1.956 E0.0101 F258
G1 X-0.134 Y-1.961 E0.0186
G1 X-0.369 Y-1.930 E0.0250
G1 X-0.599 Y-1.872 E0.0314
G1 X-0.942 Y-1.725 E0.0414
G1 X-1.143 Y-1.598 E0.0478
G1 X-1.327 Y-1.450 E0.0542
G1 X-1.542 Y-1.218 E0.0627
G1 X-1.746 Y-0.903 E0.0728
G1 X-1.842 Y-0.685 E0.0792
G1 X-1.910 Y-0.462 E0.0855
G1 X-1.952 Y-0.233 E0.0918
G1 X-1.965 Y0.000 E0.0981
G1 X-1.952 Y0.233 E0.1044
G1 X-1.909 Y0.467 E0.1108
G1 X-1.784 Y0.821 E0.1209
G1 X-1.629 Y1.101 E0.1295
G1 X-1.387 Y1.392 E0.1397
G1 X-1.142 Y1.600 E0.1484
G1 X-0.817 Y1.787 E0.1585
G1 X-0.595 Y1.873 E0.1649
G1 X-0.369 Y1.930 E0.1712
G1 X-0.138 Y1.960 E0.1774
G1 X0.095 Y1.963 E0.1837
G1 X0.327 Y1.938 E0.1900
G1 X0.555 Y1.885 E0.1963
G1 X0.774 Y1.807 E0.2026
G1 X0.983 Y1.702 E0.2089
G1 X1.177 Y1.574 E0.2151
G1 X1.359 Y1.420 E0.2216
G1 X1.603 Y1.135 E0.2317
G1 X1.765 Y0.864 E0.2402
G1 X1.856 Y0.646 E0.2465
G1 X1.921 Y0.417 E0.2529
G1 X1.964 Y0.047 E0.2630
G1 X1.956 Y-0.191 E0.2694
G1 X1.919 Y-0.424 E0.2757
G1 X1.825 Y-0.726 E0.2843
G1 X1.655 Y-1.060 E0.2944
G1 X1.515 Y-1.252 E0.3008
G1 X1.356 Y-1.423 E0.3071
G1 X1.177 Y-1.574 E0.3134
G1 X0.983 Y-1.702 E0.3196
G1 X0.774 Y-1.807 E0.3259
G1 X0.550 Y-1.887 E0.3323
G92 E0
G1 E-1.0000 F420
G1 Z0.750 F300
; layer 2, Z = 0.25
M104 S185 T0
; tool H0.100 W0.480
; inner perimeter
G1 X1.423 Y-2.730 F2000
G1 Z0.250 F300
G1 E0.1000 F420
G92 E0
G1 X1.646 Y-2.602 E0.0046 F294
G1 X1.849 Y-2.463 E0.0090
G1 X2.040 Y-2.307 E0.0135
G1 X2.218 Y-2.136 E0.0179
G1 X2.384 Y-1.949 E0.0224
G1 X2.533 Y-1.752 E0.0268
G1 X2.665 Y-1.543 E0.0313
G1 X2.780 Y-1.325 E0.0357
G1 X2.877 Y-1.098 E0.0401
G1 X2.956 Y-0.863 E0.0446
G1 X3.016 Y-0.621 E0.0490
G1 X3.056 Y-0.378 E0.0535
G1 X3.076 Y-0.132 E0.0579
G1 X3.077 Y0.124 E0.0625
G1 X3.057 Y0.370 E0.0669
G1 X3.018 Y0.613 E0.0714
G1 X2.959 Y0.853 E0.0758
G1 X2.880 Y1.090 E0.0803
G1 X2.783 Y1.317 E0.0847
G1 X2.669 Y1.536 E0.0892
G1 X2.537 Y1.745 E0.0936
G1 X2.389 Y1.943 E0.0980
G1 X2.226 Y2.128 E0.1025
G1 X2.046 Y2.301 E0.1069
G1 X1.855 Y2.458 E0.1114
G1 X1.652 Y2.598 E0.1158
G1 X1.431 Y2.727 E0.1204
G1 X1.208 Y2.833 E0.1248
G1 X0.983 Y2.918 E0.1292
G1 X0.752 Y2.986 E0.1335
G1 X0.507 Y3.037 E0.1380
G1 X0.247 Y3.069 E0.1427
G1 X0.000 Y3.079 E0.1471
G1 X-0.248 Y3.069 E0.1516
G1 X-0.492 Y3.040 E0.1560
G1 X-0.731 Y2.991 E0.1604
G1 X-0.962 Y2.925 E0.1647
G1 X-1.198 Y2.837 E0.1692
G1 X-1.424 Y2.730 E0.1737
G1 X-1.646 Y2.602 E0.1783
G1 X-1.849 Y2.463 E0.1827
G1 X-2.040 Y2.307 E0.1872
G1 X-2.218 Y2.136 E0.1916
G1 X-2.384 Y1.949 E0.1961
G1 X-2.533 Y1.752 E0.2005
G1 X-2.665 Y1.543 E0.2050
G1 X-2.780 Y1.325 E0.2094
G1 X-2.877 Y1.098 E0.2138
G1 X-2.956 Y0.863 E0.2183
G1 X-3.016 Y0.621 E0.2227
G1 X-3.056 Y0.378 E0.2272
G1 X-3.076 Y0.133 E0.2316
G1 X-3.076 Y-0.133 E0.2364
G1 X-3.057 Y-0.370 E0.2406
G1 X-3.018 Y-0.613 E0.2451
G1 X-2.959 Y-0.853 E0.2495
G1 X-2.880 Y-1.090 E0.2540
G1 X-2.783 Y-1.317 E0.2584
G1 X-2.669 Y-1.536 E0.2629
G1 X-2.537 Y-1.745 E0.2673
G1 X-2.389 Y-1.943 E0.2717
G1 X-2.226 Y-2.128 E0.2762
G1 X-2.046 Y-2.301 E0.2806
G1 X-1.855 Y-2.458 E0.2851
G1 X-1.652 Y-2.598 E0.2895
G1 X-1.431 Y-2.727 E0.2941
G1 X-1.208 Y-2.832 E0.2985
G1 X-0.977 Y-2.920 E0.3030
G1 X-0.746 Y-2.987 E0.3073
G1 X-0.509 Y-3.037 E0.3116
G1 X-0.263 Y-3.068 E0.3161
G1 X-0.011 Y-3.079 E0.3206
G1 X0.230 Y-3.070 E0.3250
G1 X0.483 Y-3.041 E0.3295
G1 X0.728 Y-2.992 E0.3340
G1 X0.963 Y-2.925 E0.3384
G1 X1.208 Y-2.832 E0.3431
G1 X1.423 Y-2.730 E0.3474
; outer perimeter
G1 X1.646 Y-3.156 F2000
G92 E0
G1 X1.902 Y-3.009 E0.0053 F252
G1 X2.137 Y-2.847 E0.0104
G1 X2.358 Y-2.666 E0.0156
G1 X2.565 Y-2.469 E0.0207
G1 X2.756 Y-2.253 E0.0259
G1 X2.928 Y-2.025 E0.0310
G1 X3.080 Y-1.784 E0.0361
G1 X3.213 Y-1.531 E0.0412
G1 X3.326 Y-1.269 E0.0464
G1 X3.417 Y-0.998 E0.0515
G1 X3.486 Y-0.718 E0.0567
G1 X3.533 Y-0.437 E0.0618
G1 X3.556 Y-0.152 E0.0669
G1 X3.557 Y0.143 E0.0722
G1 X3.534 Y0.427 E0.0774
G1 X3.488 Y0.709 E0.0825
G1 X3.420 Y0.987 E0.0876
G1 X3.329 Y1.260 E0.0928
G1 X3.218 Y1.523 E0.0979
G1 X3.085 Y1.776 E0.1031
G1 X2.933 Y2.017 E0.1082
G1 X2.762 Y2.246 E0.1133
G1 X2.573 Y2.460 E0.1184
G1 X2.365 Y2.660 E0.1236
G1 X2.145 Y2.841 E0.1287
G1 X1.910 Y3.004 E0.1339
G1 X1.655 Y3.152 E0.1392
G1 X1.397 Y3.274 E0.1443
G1 X1.136 Y3.374 E0.1493
G1 X0.868 Y3.452 E0.1543
G1 X0.586 Y3.511 E0.1595
G1 X0.286 Y3.548 E0.1649
G1 X0.000 Y3.560 E0.1701
G1 X-0.286 Y3.548 E0.1752
